X: 110101
T: LADY MARY RAMSAY
Q: "Strathspey."
R:  Strathspey.
%R: strathspey
B: James Kerr "Merry Melodies" v.1 p.10 s.1 #1
Z: 2017 John Chambers <jc:trillian.mit.edu>
M: C
L: 1/8
K: D
|: uF |\
D3 B A<F F>B | A>F B>G A<F F<d |\
D3 B A<F F>A | B<d A>F FE E :|\
ug |\
f<d d>uf e<c c>ue | d<B B>ud A<F F>g |
f<d d>f e<c c>A | B<d A>F E<E E>ug |\
f<d d>f e<c c>e | d<f B>d A<F F>A |\
d<f c<e B<d A<B | F<d A>F FE E |]

%%sep 1 1 500
%%sep 1 1 500

